!!!COM: Robert Franz
!!!CNT: Deutscher
!!!TXO: Deutsche 
!!!OTL: "Was pocht mein Herz so sehr?"
!!!OPS: Op. 9
!!!ONM: No. 1
!!!ONB: Original key: d minor
!!!LYR: after Rob. Burns
!!!ENC: Brian Bice
!!!YOR: Vocal Album, G. Schirmer, Inc., 1907
!!!ODT: 1860/
!!NB: Vocal melody and text only encoded.
**kern	**silbe
*clefG2	*
*k[b-e-a-d-g-]	*
*M2/4	*
=1	=1
{8f	{Was
16b-	pocht
16b-	mein
8an	Herz
8b-	so
=2	=2
4cc	sehr?
8r	.
8f	was
=3	=3
8dd-	will
8an	im
8b-	Aug'
8cc	die
=4	=4
4f}	Thra2n',}
4r	.
=5	=5
{8f	{was
16b-	werd'
16b-	ich
8an	im-
8b-	-mer
=6	=6
8.cc	to-
16f	-dten-
4f	-bleich,
=7	=7
8dd-	seh'
16f	ich
16gn	dich
8a-	von
8gn	mir
=8	=8
4f}	geh'n,}
4r	.
=9	=9
{8f	{seh'
16cc	ich
16b-	dich
8a-	von
8gn	mir
=10	=10
4f}	geh'n?}
4r	.
=11	=11
{8dn	{Ach!
16f	bin
16a-	ich
8cc-	fern
8d-	von
=12	=12
(4f	dir,
8e-)	|
8r	.
=13	=13
8en	wirst
16gn	du
16b-	nur
8dd-	lie-
8e-	-ber
=14	=14
(4gn	mir,
4a-)}	|}
=15	=15
{(16f	{wo
16a-)	|
16a-	du
16dd-	auch
8cc	weilst,
16r	.
16f	wo-
=16	=16
(16f	-hin
16b-)	|
16b-	du
16dd-	auch
4cc	eilst,
=17	=17
8b-	stets
16e-	ist
16f	mein
8g-	Herz
(16f	bei
16e-)	|
=18	=18
4f}	dir.}
4r	.
=20	=20
{(8f	{Such'
16b-)	|
16b-	jed'
8an	Pla2tz-
8b-	-chen
=21	=21
4cc	auf,
4r	.
=22	=22
8dd-	wo
16an	ich
16an	einst
8b-	war
8c	und
=23	=23
4f}	du!}
4r	.
=24	=24
{8f	{da
16b-	flu2-
16b-	-stern
8an	mir
8b-	manch
=25	=25
8.cc	trau-
16f	-tes
4f	Wort
=26	=26
8dd-	Blu-
16f	-men
16gn	und
8a-	Quel-
8gn	-len
=27	=27
4f}	zu,}
4r	.
=28	=28
{8f	{Blu-
16cc	-men
16b-	und
8a-	Quel-
8gn	-len
=29	=29
4f}	zu.}
4r	.
=30	=30
{8dn	{Hoff-
16f	-nung
16a-	nur
8cc-	stillt
8dn	mein
=31	=31
(4f	Weh,
8e)	|
8r	.
=32	=32
8en	da
16gn	du
16b-	so
8dd-	fern
8e-	von
=33	=33
(4gn	mir,
4a-)}	|}
=34	=34
{(16f	{und
16a-)	|
16a-	wenn
16dd-	ich
8cc	tra2um',
16r	.
16f	dass
=35	=35
(16f	ich
16b-)	|
(16b-	dich
16dd-)	|
4cc	seh',
=36	=36
8b-	ist
16e-	mir's,
16f	ich
8g-	sei
8c	bei
=37	=37
4d-}	dir.}
4r	.
*-	*-
